X:1
T:Hayat davam edir
T:By M. Alismaiel
%%score 1 2
L:1/8
Q:1/4=50
M:4/4
K:F
V:1 treble nm="Klavier" snm="Klav."
V:2 bass nm="Klavier" snm="Klav."
V:1
 d/a/f'/a/ d/a/f'/a/ d/a/f'/a/ d/a/f'/a/ |: f'>e' d'>c' d'>a d'/a/e'/a/ | %2
 f'3/2 z/8 e'/8f'/8e'/8d'>c' e'4 | e'>d' c'>a e'>d'- d'2 | b>b(3:2:2e'/8d'/4-d'3/4-d'/b/ a4 :: %5
 a'>g'f'3/2e'/8f'/8e'/8d'/8 f'>a d'/a/e'/a/ | a'3/2 z/8 g'/8a'/8g'/8f'>e' g'4 | %7
 g'>f' e'>f' d'>b- b2 | b>b(3:2:2e'/8d'/4-d'3/4-d'/b/ a4 :: %9
 d/c/d/c/ d/c/d/e/4f/4 e/d/e/d/ e/d/c/e/ | d/c/B/c/ z/ .de/ d4 :: %11
 a'>g'f'3/2e'/8f'/8e'/8d'/8 f'>a d'/a/e'/a/ | a'3/2 z/8 g'/8a'/8g'/8f'>e' g'4 | %13
 g'>f' e'>f' d'>b- b2 | b>b(3:2:2e'/8d'/4-d'3/4-d'/b/ a4 :| %15
 d/c/d/c/ d/c/d/e/4f/4 e/d/e/d/ e/d/c/e/ | d/c/B/c/ z/ .de/ d4 | z8 |: %18
 f'>e' d'>c' d'>a d'/a/e'/a/ | f'3/2 z/8 e'/8f'/8e'/8d'>c' e'4 | e'>d' c'>a e'>d'- d'2 | %21
 b>b(3:2:2e'/8d'/4-d'3/4-d'/b/ a4 :: a'>g'f'3/2e'/8f'/8e'/8d'/8 f'>a d'/a/e'/a/ | %23
 a'3/2 z/8 g'/8a'/8g'/8f'>e' g'4 | g'>f' e'>f' d'>b- b2 | b>b(3:2:2e'/8d'/4-d'3/4-d'/b/ a4 :| %26
 d/c/d/c/ d/c/d/e/4f/4 e/d/e/d/ e/d/c/e/ | d/c/B/c/ z/ .de/ dddd- | d8[Q:1/2=80] |] %29
V:2
 D,/A,/F/A,/ D,/A,/F/A,/ D,/A,/F/A,/ D,/A,/F/A,/ |: D,/A,/D/A,/ F/A,/D/A,/ D,/A,/D/A,/ F/A,/D/A,/ | %2
 B,,/F,/B,/F,/ B,/F,/B,/F,/ C,/G,/C/G,/ E/G,/C/G,/ | %3
 A,,/E,/A,/E,/ C/E,/A,/E,/ B,,/F,/B,/F,/ B,/F,/B,/F,/ | %4
 B,,/F,/B,/F,/ B,/F,/B,/F,/ D,/A,/D/A,/ F/A,/D/A,/ :: %5
 D,/A,/D/A,/ F/A,/D/A,/ D,/A,/D/A,/ F/A,/D/A,/ | %6
 B,,/F,/B,/F,/ B,/F,/B,/F,/ C,/G,/C/G,/ E/G,/C/G,/ | %7
 A,,/E,/A,/E,/ C/E,/A,/E,/ B,,/F,/B,/F,/ B,/F,/B,/F,/ | %8
 B,,/F,/B,/F,/ B,/F,/B,/F,/ D,/A,/D/A,/ F/A,/D/A,/ :: %9
 B,,/F,/B,/F,/ B,/F,/B,/F,/ C,/G,/C/G,/ E/G,/C/G,/ | %10
 B,,/F,/B,/F,/ B,/F,/B,/F,/ D,/A,/D/A,/ F/A,/D/A,/ :: %11
 D,/A,/D/A,/ F/A,/D/A,/ D,/A,/D/A,/ F/A,/D/A,/ | %12
 B,,/F,/B,/F,/ B,/F,/B,/F,/ C,/G,/C/G,/ E/G,/C/G,/ | %13
 A,,/E,/A,/E,/ C/E,/A,/E,/ B,,/F,/B,/F,/ B,/F,/B,/F,/ | %14
 B,,/F,/B,/F,/ B,/F,/B,/F,/ D,/A,/D/A,/ F/A,/D/A,/ :| %15
 B,,/F,/B,/F,/ B,/F,/B,/F,/ C,/G,/C/G,/ E/G,/C/G,/ | %16
 B,,/F,/B,/F,/ B,/F,/B,/F,/ D,/A,/D/A,/ F/A,/D/A,/ | D,/A,/F/A,/ D,/A,/F/A,/ D,/A,/F FF |: %18
 D,/A,/D/A,/ F/A,/D/A,/ D,/A,/D/A,/ F/A,/D/A,/ | %19
 B,,/F,/B,/F,/ B,/F,/B,/F,/ C,/G,/C/G,/ E/G,/C/G,/ | %20
 A,,/E,/A,/E,/ C/E,/A,/E,/ B,,/F,/B,/F,/ B,/F,/B,/F,/ | %21
 B,,/F,/B,/F,/ B,/F,/B,/F,/ D,/A,/D/A,/ F/A,/D/A,/ :: %22
 D,/A,/D/A,/ F/A,/D/A,/ D,/A,/D/A,/ F/A,/D/A,/ | %23
 B,,/F,/B,/F,/ B,/F,/B,/F,/ C,/G,/C/G,/ E/G,/C/G,/ | %24
 A,,/E,/A,/E,/ C/E,/A,/E,/ B,,/F,/B,/F,/ B,/F,/B,/F,/ | %25
 B,,/F,/B,/F,/ B,/F,/B,/F,/ D,/A,/D/A,/ F/A,/D/A,/ :| %26
 B,,/F,/B,/F,/ B,/F,/B,/F,/ C,/G,/C/G,/ E/G,/C/G,/ | %27
 B,,/F,/B,/F,/ B,/F,/B,/F,/ D,/A,/D/A,/ F/A,/D | [D,F,A,D]4 B,,/4D,/4F,/4B,/4 [B,,D,F,B,]3 |] %29

